lib/svgs/store.svg

<?xml version="1.0" encoding="UTF-8"?>
<svg width="16px" height="17px" viewBox="0 0 16 17" version="1.1" xmlns="http://www.w3.org/2000/svg" xmlns:xlink="http://www.w3.org/1999/xlink">
    <!-- Generator: sketchtool 51.3 (57544) - http://www.bohemiancoding.com/sketch -->
    <title>store</title>
    <desc>Created with sketchtool.</desc>
    <defs></defs>
    <g id="Icons" stroke="none" stroke-width="1" fill="none" fill-rule="evenodd">
        <g id="Deprecated" transform="translate(-162.000000, -160.000000)" fill="#000000" fill-rule="nonzero">
            <g id="store" transform="translate(162.000000, 160.000000)">
                <path d="M13.542441,10.3202454 C13.3449122,10.3603343 13.1405016,10.381373 12.9311904,10.381373 C11.9207398,10.381373 11.0247893,9.8910438 10.4659162,9.13408628 C9.90677432,9.8910241 9.01049735,10.381373 8,10.381373 C6.98950265,10.381373 6.09322568,9.8910241 5.53408375,9.13408628 C4.97521073,9.8910438 4.07926022,10.381373 3.06880964,10.381373 C2.85949836,10.381373 2.65508777,10.3603343 2.45755902,10.3202454 L2.45755902,14.2884907 L13.542441,14.2884907 L13.542441,10.3202454 Z M14.7478654,9.78357268 L14.7478654,14.8942453 C14.7478654,15.2287944 14.4780219,15.5 14.1451532,15.5 L1.85484681,15.5 C1.52197805,15.5 1.25213461,15.2287944 1.25213461,14.8942453 L1.25213461,9.78357268 C0.492728407,9.22241393 0,8.31828101 0,7.29808178 L0,2.10575467 C0,1.7712056 0.269843446,1.5 0.602712205,1.5 L15.3972878,1.5 C15.7301566,1.5 16,1.7712056 16,2.10575467 L16,7.29808178 C16,8.31828101 15.5072716,9.22241393 14.7478654,9.78357268 Z M1.20542441,7.29808178 C1.20542441,8.33226931 2.03928115,9.16986371 3.06880964,9.16986371 C4.09807047,9.16986371 4.93119036,8.33253826 4.93119036,7.29808178 C4.93119036,6.49040888 6.13661477,6.49040888 6.13661477,7.29808178 C6.13661477,8.33226931 6.97047151,9.16986371 8,9.16986371 C9.02952849,9.16986371 9.86338523,8.33226931 9.86338523,7.29808178 C9.86338523,6.49040888 11.0688096,6.49040888 11.0688096,7.29808178 C11.0688096,8.33253826 11.9019295,9.16986371 12.9311904,9.16986371 C13.9607188,9.16986371 14.7945756,8.33226931 14.7945756,7.29808178 L14.7945756,2.71150934 L1.20542441,2.71150934 L1.20542441,7.29808178 Z" id="Shape"></path>
            </g>
        </g>
    </g>
</svg>

<svg xmlns="http://www.w3.org/2000/svg" viewBox="0 0 16 17">
    <path d="M13.542 10.32a3.07 3.07 0 0 1-3.076-1.186 3.06 3.06 0 0 1-4.932 0 3.058 3.058 0 0 1-3.076 1.186v3.968h11.084V10.32zm1.206-.536v5.11c0 .335-.27.606-.603.606H1.855a.604.604 0 0 1-.603-.606v-5.11A3.083 3.083 0 0 1 0 7.298V2.106C0 1.77.27 1.5.603 1.5h14.794c.333 0 .603.271.603.606v5.192c0 1.02-.493 1.924-1.252 2.486zM1.205 7.298a1.867 1.867 0 1 0 3.726 0c0-.808 1.206-.808 1.206 0a1.867 1.867 0 1 0 3.726 0c0-.808 1.206-.808 1.206 0a1.866 1.866 0 1 0 3.726 0V2.712H1.205v4.586z"/>
</svg>
